Adwaita++-Dark/actions/22/view-media-playlist.svg

<svg height="22" width="22" xmlns="http://www.w3.org/2000/svg">
  <path d="m3 3v2.28571h16v-2.28571zm0 4.57589v2.28572h16v-2.28572zm0 4.57141v2.2857h16v-2.2857zm0 4.567v2.2857h16v-2.2857z" fill="#e6ddff"/>
</svg>

<svg xmlns="http://www.w3.org/2000/svg" width="22" height="22" version="1.1">
 <path fill="#E6DDFF" d="M3 3V5.28571H19V3H3ZM3 7.57589V9.86161H19V7.57589H3ZM3 12.1473V14.433H19V12.1473H3ZM3 16.7143V19H19V16.7143H3Z"/>
</svg>
